packages/core/src/svgs/tokens/mono/BLP.svg

<svg width="24" height="24" viewBox="0 0 24 24" fill="none" xmlns="http://www.w3.org/2000/svg">
<path d="M2 17.6228C2.01054 18.1438 2.6844 17.9649 2.94236 17.7912H3.05291V18.5703L3.28455 18.844L3.89523 18.2018V17.749C4.04264 17.6648 4.34272 17.4701 4.34272 17.3805C4.76387 16.1329 5.63779 15.8012 6.01683 15.7906L6.58014 15.1589H7.26978C7.58039 15.001 8.25425 15.0536 8.55433 15.0589L9.4335 14.2956L9.5388 13.9586C10.2126 13.9586 10.9813 13.5795 11.5657 13.5795H12.887C13.1713 13.5795 13.6082 13.6059 13.8136 13.5005C13.8136 14.206 14.1084 14.343 14.1084 14.6798C14.1084 14.9536 13.9346 15.0852 13.8136 15.1589H14.1821C14.0716 15.2221 13.8031 15.4221 13.6029 15.4221C13.3293 15.5011 13.2871 16.3908 13.303 16.7383H13.7241C14.1557 16.333 15.0086 15.2853 15.0086 15.0589C15.0086 14.7746 14.6348 14.5324 14.6348 13.7691C14.6348 13.1584 14.977 12.7215 15.1666 12.5267L15.3614 12.6478C15.4719 12.3634 15.7456 11.8054 15.9773 11.8054C16.2037 11.8054 16.5669 12.4687 16.7406 12.8004L16.4985 13.0532H16.7406C16.6722 13.2057 16.4248 13.5005 16.309 13.5005C16.0194 13.5005 15.9667 14.185 15.9773 14.6325C16.5038 14.2744 17.5725 13.7217 17.5725 13.5005C17.5725 13.2847 17.3514 12.9426 17.2671 12.8004V12.0265C17.2671 11.2474 17.1039 11.0105 16.9933 10.9473H16.4248C16.7617 10.8841 17.1566 9.36795 17.6672 9.36795C18.0778 9.36795 18.2568 10.5156 18.3148 11.021C18.4042 11.1789 18.6938 11.4737 19.0097 11.4737C19.3255 11.4737 19.7467 11.121 19.8941 10.9473V10.4471C19.8941 10.4471 20.0468 10.1102 20.1468 9.95234V9.47325L20.4101 8.97312V8.58881C20.4679 8.64146 20.6259 8.74147 20.7786 8.74147C20.9628 8.74147 21.1787 8.54669 21.2524 8.3835C21.0309 8.38047 20.8137 8.32204 20.6206 8.21354C20.4274 8.10502 20.2646 7.94989 20.1468 7.76228C20.3311 7.86757 20.8101 8.08868 21.2524 8.08868C21.8051 8.08868 22 7.64646 22 7.26215C21.8736 7.54644 21.5682 7.7886 21.3366 7.7886C21.1102 7.7886 20.9944 7.62014 20.6996 7.29373C20.3995 6.96734 19.9099 6.97786 19.6466 6.97786C18.1726 5.21951 16.8986 5.15634 16.5828 5.15634C16.2668 5.15634 16.288 5.19846 15.814 5.26163C15.3403 5.31954 14.9929 5.05631 14.6875 5.19846C13.6135 5.80914 12.8343 5.86179 12.308 6.04078C11.8868 6.18818 11.5551 6.72517 11.4393 6.97786C11.1445 7.40956 10.4285 8.37823 9.93363 8.78886C9.30189 9.31531 8.76492 9.36795 8.3227 9.36795C7.96997 9.36795 7.37508 9.04683 7.11712 8.8415C7.00657 8.8415 6.52749 8.8415 6.34324 8.78886C6.10633 8.73095 5.41668 8.25187 5.41668 7.52011C5.41668 6.93048 5.65885 6.46721 5.82204 6.30926C5.93787 6.35139 6.24321 6.43036 6.57487 6.43036C7.03815 6.43036 7.25926 6.16713 7.26978 5.89337C7.28032 5.71438 7.2382 5.53538 7.20661 5.4143C7.20566 5.51435 7.17306 5.61154 7.11348 5.69193C7.05389 5.77231 6.9704 5.83178 6.87496 5.86179C6.70174 5.7465 6.49865 5.6843 6.29059 5.68279C6.05368 5.68279 5.83784 5.96182 5.75887 6.11448C5.39924 6.49543 5.18655 6.9917 5.15871 7.51484C5.15871 8.2624 5.5483 8.72042 5.81679 8.90468C6.09053 9.08893 6.99604 9.38902 6.99604 9.75752C6.99604 10.3524 6.23268 10.8999 6.21163 11.1789C6.19056 11.4 6.26426 12.6688 6.33797 13.2479C6.14845 13.4268 5.72729 13.7902 5.54828 13.7902C5.26401 13.8059 4.95866 14.0113 4.88496 14.206C4.57961 15.1906 3.43721 15.7222 3.06344 15.8696C2.6844 16.017 2.6844 16.2697 2.58963 16.4487C2.49487 16.6329 2 17.1016 2 17.6279V17.6228Z" fill="white"/>
<path d="M18.4832 5.87231C18.2726 6.40403 17.9567 7.09369 17.8093 7.09369C17.6935 7.09369 17.6303 7.03051 17.5672 6.96207C17.5092 6.89889 17.4461 6.83573 17.3408 6.83573C17.2355 6.83573 17.1987 6.89889 17.1618 6.96734C17.125 7.03051 17.0881 7.09369 16.9828 7.09369C16.8827 7.09369 16.767 6.94628 16.6406 6.78834C16.4879 6.59882 16.3248 6.39351 16.1668 6.39351C15.9351 6.39351 15.7983 6.63567 15.7562 6.75148C15.5298 7.42008 15.0401 8.75727 14.8927 8.75727C14.8033 8.75727 14.7717 8.71516 14.7349 8.66777C14.6928 8.61513 14.6506 8.56248 14.5295 8.57828C14.4348 8.58881 14.3452 8.79939 14.24 9.03629C14.1084 9.34164 13.9557 9.69438 13.7452 9.69438C13.6135 9.69438 13.5345 9.59955 13.4661 9.49957C13.3818 9.38902 13.2977 9.27319 13.1239 9.27319C12.8659 9.27319 12.7238 9.55742 12.6869 9.69438L12.1657 11.0052L11.7762 10.8684C11.6288 11.2369 11.2603 11.9739 10.9602 11.9739C10.5917 11.9739 10.3653 11.537 10.1706 11.142C10.0073 10.8262 9.86519 10.5524 9.67565 10.5524C9.33873 10.5524 9.21238 11.042 9.18605 11.2894H8.82806L8.14368 12.7846H7.85413L7.06445 15.1589H7.27504C7.53827 15.022 8.08577 15.0432 8.42271 15.0536L8.55432 15.0589L9.43348 14.2956L9.53878 13.9586C9.89148 13.9586 10.2653 13.8533 10.6232 13.7585C10.9602 13.6691 11.2813 13.5795 11.5656 13.5795H13.0291C13.303 13.5795 13.6398 13.5901 13.8189 13.5005C13.8189 13.9218 13.9189 14.1323 14.0031 14.3166C14.0557 14.4377 14.1084 14.543 14.1084 14.6851C14.1084 14.9483 13.9346 15.0852 13.8136 15.1589H14.1821L14.1084 15.2063C13.9767 15.2905 13.7715 15.4274 13.6082 15.4274C13.3292 15.5011 13.2924 16.3908 13.303 16.7383H13.724C14.1557 16.333 15.0086 15.2853 15.0086 15.0589C15.0086 14.9536 14.956 14.8483 14.8876 14.7219C14.7822 14.5114 14.6348 14.2429 14.6348 13.7691C14.6348 13.1584 14.977 12.7215 15.1665 12.5267L15.3614 12.6478C15.4719 12.3634 15.7456 11.8054 15.9773 11.8054C16.2037 11.8054 16.5669 12.4687 16.7406 12.8004L16.4985 13.0532H16.7406C16.6722 13.2057 16.4248 13.5005 16.3089 13.5005C16.0194 13.5005 15.9667 14.185 15.9773 14.6325C16.1352 14.5272 16.3352 14.4061 16.5459 14.2797C17.046 13.9797 17.5725 13.6585 17.5725 13.5005C17.5725 13.3111 17.4092 13.032 17.3092 12.8689L17.2671 12.8004V12.0265C17.2671 11.2474 17.1038 11.0105 16.9933 10.9473H16.4248C16.5722 10.9209 16.7249 10.621 16.8986 10.284C17.125 9.85223 17.3776 9.36795 17.6672 9.36795C18.0778 9.36795 18.2568 10.5156 18.3148 11.021C18.4042 11.1789 18.6937 11.4737 19.0097 11.4737C19.3255 11.4737 19.7467 11.121 19.8941 10.9473V10.4471C19.8941 10.4471 20.0468 10.1102 20.1468 9.95234V9.47325L20.41 8.97312V8.58881C20.4679 8.64146 20.6259 8.74147 20.7786 8.74147C20.9628 8.74147 21.1786 8.54669 21.2523 8.38349C21.0309 8.38047 20.8137 8.32204 20.6206 8.21354C20.4274 8.10502 20.2646 7.94989 20.1468 7.76228C20.3311 7.86757 20.8101 8.08868 21.2523 8.08868C21.8051 8.08868 21.9999 7.64646 21.9999 7.26215C21.8735 7.54643 21.5682 7.7886 21.3366 7.7886C21.1418 7.7886 21.0207 7.65699 20.7996 7.40956L20.6943 7.29373C20.41 6.97786 19.9363 6.97786 19.673 6.97786H19.6519C19.2412 6.49352 18.8411 6.13555 18.4779 5.87231H18.4832Z" fill="white"/>
<path d="M18.3198 5.76196C18.2357 5.97255 18.1304 6.21471 18.0303 6.43056C17.9541 6.58789 17.8662 6.73924 17.7671 6.88331C17.748 6.86549 17.7304 6.84611 17.7145 6.82539L17.7039 6.81486C17.6461 6.75169 17.5302 6.63061 17.3407 6.63061C17.2509 6.6302 17.1643 6.66409 17.0986 6.72536C17.0459 6.77275 17.0143 6.83066 16.9932 6.85699V6.86224L16.9827 6.87804C16.9155 6.80781 16.8523 6.734 16.7932 6.65693L16.7563 6.61482C16.6845 6.52092 16.6052 6.43291 16.5194 6.35159C16.4352 6.27789 16.3141 6.19366 16.172 6.19366C15.9825 6.19366 15.8403 6.28841 15.7508 6.38844C15.6561 6.48847 15.5981 6.59902 15.5718 6.68852C15.4612 7.02019 15.2823 7.51504 15.1137 7.92568C15.0355 8.12287 14.9477 8.31614 14.8506 8.50478C14.8211 8.46883 14.7855 8.43851 14.7452 8.41528C14.6719 8.37907 14.5892 8.36621 14.5084 8.37843C14.4246 8.39205 14.3492 8.43727 14.2978 8.50478C14.2557 8.55216 14.2241 8.61007 14.1924 8.66797C14.1454 8.76298 14.1014 8.85955 14.0609 8.95753L14.0135 9.06281C13.9651 9.18238 13.9051 9.29698 13.8345 9.40501C13.8158 9.43463 13.7927 9.46125 13.7661 9.48398C13.7597 9.4886 13.7526 9.49215 13.7451 9.49451C13.7187 9.49451 13.7029 9.48925 13.6081 9.3629C13.5291 9.2576 13.3923 9.07334 13.1237 9.07334C12.9185 9.07334 12.7711 9.1839 12.6764 9.29972C12.5815 9.41027 12.529 9.53663 12.5026 9.62616L12.055 10.7527L11.6655 10.6159L11.5918 10.7949C11.5234 10.9685 11.4023 11.2318 11.2602 11.4529C11.1917 11.5582 11.1233 11.6477 11.0601 11.7056C10.9969 11.7688 10.9653 11.774 10.9601 11.774C10.8706 11.774 10.7811 11.7267 10.6811 11.6162C10.5709 11.4783 10.4773 11.3281 10.402 11.1687L10.3442 11.0581C10.2776 10.9209 10.2039 10.7874 10.123 10.658C10.0703 10.5843 10.0178 10.5106 9.94935 10.4526C9.87355 10.3859 9.77651 10.3486 9.67554 10.3474C9.39652 10.3474 9.22806 10.5579 9.13856 10.7369C9.08591 10.8474 9.0438 10.9738 9.02275 11.0844H8.70687L8.02249 12.5795H7.71187L6.85376 15.1591H7.26965L7.9909 12.9848H8.26992L8.9543 11.4898H9.36494L9.38074 11.3055C9.39126 11.2002 9.42285 11.0422 9.48602 10.9213C9.54914 10.7949 9.61768 10.7527 9.67554 10.7527C9.67554 10.7527 9.6861 10.7527 9.70183 10.7686C9.72824 10.7896 9.75981 10.8264 9.80194 10.8896C9.86925 11.0004 9.9308 11.1146 9.9862 11.2318L10.0546 11.3582C10.1493 11.5372 10.2599 11.7371 10.3967 11.8898C10.5337 12.0478 10.7179 12.1794 10.9601 12.1794C11.1128 12.1794 11.2392 12.0899 11.3286 12.0057C11.4234 11.9162 11.5128 11.7951 11.5918 11.674C11.7024 11.495 11.8024 11.2896 11.8814 11.1212L12.2762 11.2528L12.8711 9.76301V9.74716C12.8869 9.69987 12.9238 9.62616 12.9763 9.5629C13.0185 9.50503 13.0712 9.47871 13.1237 9.47871C13.187 9.47871 13.2186 9.50503 13.2976 9.61032L13.3133 9.63132C13.3817 9.72087 13.5134 9.89457 13.7451 9.89457C13.9345 9.89457 14.0714 9.75772 14.1504 9.64717C14.2399 9.5261 14.3083 9.36815 14.3715 9.23129L14.4241 9.11019C14.472 9.0026 14.5247 8.8972 14.5821 8.79432C14.5927 8.81012 14.6295 8.8575 14.6715 8.88908C14.7295 8.93647 14.8032 8.96279 14.8926 8.96279C14.9663 8.96279 15.0243 8.92068 15.0506 8.89962C15.0769 8.8733 15.1033 8.84697 15.119 8.82065L15.2296 8.63639C15.3033 8.48898 15.3875 8.2942 15.4771 8.08362C15.6455 7.66245 15.8298 7.15706 15.9403 6.82013C15.9598 6.76385 15.9902 6.71197 16.0299 6.66746C16.0772 6.62008 16.1246 6.59902 16.172 6.59902L16.193 6.60428L16.2614 6.65693C16.3194 6.70958 16.3825 6.78328 16.4562 6.87278L16.4878 6.91489C16.5405 6.98859 16.6089 7.06757 16.6668 7.12547C16.7036 7.1676 16.7458 7.20445 16.7932 7.23603C16.8579 7.28242 16.9368 7.30512 17.0163 7.30033C17.0959 7.29553 17.1714 7.26354 17.2301 7.2097C17.2828 7.15705 17.3144 7.10442 17.3301 7.07282V7.06757L17.3512 7.03597C17.3617 7.03597 17.3722 7.0465 17.4302 7.10442V7.10968C17.4986 7.17812 17.6092 7.2992 17.8092 7.2992C17.8904 7.29256 17.9658 7.25484 18.0199 7.19391C18.0671 7.1518 18.1093 7.09915 18.1461 7.04124C18.2198 6.92542 18.3041 6.77275 18.3831 6.60955L18.6463 5.99887C18.5406 5.91566 18.4317 5.83664 18.3198 5.76196Z" fill="white"/>
</svg>

<svg xmlns="http://www.w3.org/2000/svg" width="24" height="24" fill="none" viewBox="0 0 24 24">
    <path fill="#fff" d="M2 17.623c.01.52.684.342.942.168h.11v.78l.233.273.61-.642v-.453c.148-.084.448-.279.448-.368.42-1.248 1.295-1.58 1.674-1.59l.563-.632h.69c.31-.158.984-.105 1.284-.1l.88-.763.105-.337c.674 0 1.442-.38 2.027-.38h1.321c.284 0 .721.027.927-.079 0 .706.294.843.294 1.18 0 .274-.173.405-.294.479h.368c-.11.063-.379.263-.58.263-.273.08-.315.969-.299 1.316h.421c.432-.405 1.285-1.453 1.285-1.68 0-.283-.374-.526-.374-1.289 0-.61.342-1.047.532-1.242l.194.12c.11-.284.385-.842.616-.842.227 0 .59.664.764.995l-.242.253h.242c-.069.153-.316.447-.432.447-.29 0-.342.685-.332 1.133.527-.359 1.596-.911 1.596-1.132 0-.216-.222-.558-.306-.7v-.774c0-.78-.163-1.016-.274-1.08h-.568c.337-.063.732-1.579 1.242-1.579.41 0 .59 1.148.648 1.653.09.158.379.453.695.453s.737-.353.884-.527v-.5s.153-.337.253-.495v-.479l.263-.5V8.59a.63.63 0 0 0 .369.152c.184 0 .4-.194.473-.357a1.33 1.33 0 0 1-1.105-.622c.184.106.663.327 1.105.327.553 0 .748-.443.748-.827-.126.284-.432.527-.663.527-.227 0-.343-.169-.637-.495-.3-.327-.79-.316-1.053-.316-1.474-1.758-2.748-1.822-3.064-1.822s-.295.042-.769.106c-.474.058-.821-.206-1.126-.064-1.075.611-1.854.664-2.38.843-.421.147-.753.684-.869.937-.294.432-1.01 1.4-1.505 1.81-.632.527-1.17.58-1.611.58-.353 0-.948-.321-1.206-.527-.11 0-.59 0-.774-.052-.237-.058-.926-.537-.926-1.269 0-.59.242-1.053.405-1.21.116.041.421.12.753.12.463 0 .684-.263.695-.537a1.6 1.6 0 0 0-.063-.479.47.47 0 0 1-.332.448 1.07 1.07 0 0 0-.584-.18c-.237 0-.453.28-.532.432-.36.381-.572.878-.6 1.4 0 .748.39 1.206.658 1.39.274.185 1.179.485 1.179.854 0 .594-.763 1.142-.784 1.42-.021.222.052 1.49.126 2.07-.19.179-.61.542-.79.542-.284.016-.59.221-.663.416-.305.985-1.448 1.516-1.822 1.664-.379.147-.379.4-.473.579-.095.184-.59.653-.59 1.179z"/>
    <path fill="#fff" d="M18.483 5.872c-.21.532-.526 1.222-.674 1.222-.116 0-.179-.063-.242-.132-.058-.063-.12-.126-.226-.126s-.142.063-.18.131c-.036.064-.073.127-.178.127-.1 0-.216-.148-.342-.306-.153-.19-.316-.394-.474-.394-.232 0-.369.242-.41.357-.227.67-.717 2.006-.864 2.006-.09 0-.121-.042-.158-.09-.042-.052-.084-.105-.205-.089-.095.01-.185.221-.29.458-.132.306-.284.658-.495.658-.131 0-.21-.094-.279-.194-.084-.111-.168-.227-.342-.227-.258 0-.4.284-.437.421l-.521 1.311-.39-.137c-.147.369-.516 1.106-.816 1.106-.368 0-.595-.437-.79-.832-.163-.316-.305-.59-.494-.59-.337 0-.464.49-.49.737h-.358l-.684 1.496h-.29l-.79 2.374h.211c.263-.137.81-.116 1.148-.105l.131.005.88-.763.105-.337c.352 0 .726-.106 1.084-.2.337-.09.658-.18.943-.18h1.463c.274 0 .61.011.79-.079 0 .422.1.632.184.817.053.12.105.226.105.368 0 .263-.173.4-.294.474h.368l-.074.047c-.131.085-.337.221-.5.221-.279.074-.316.964-.305 1.311h.421c.432-.405 1.285-1.453 1.285-1.68 0-.104-.053-.21-.121-.336-.106-.21-.253-.48-.253-.953 0-.61.342-1.047.531-1.242l.195.12c.11-.284.385-.842.616-.842.227 0 .59.664.764.995l-.242.253h.242c-.069.153-.316.447-.432.447-.29 0-.342.685-.332 1.133.158-.106.358-.227.569-.353.5-.3 1.027-.621 1.027-.78 0-.189-.164-.468-.264-.631l-.042-.069v-.774c0-.779-.163-1.015-.274-1.079h-.568c.147-.026.3-.326.474-.663.226-.432.479-.916.768-.916.41 0 .59 1.148.648 1.653.09.158.379.453.695.453s.737-.353.884-.527v-.5s.153-.337.253-.495v-.479l.263-.5V8.59a.63.63 0 0 0 .369.152c.184 0 .4-.194.473-.358a1.33 1.33 0 0 1-1.105-.62c.184.105.663.326 1.105.326.553 0 .748-.443.748-.827-.127.284-.432.527-.663.527-.195 0-.316-.132-.537-.38l-.106-.115c-.284-.316-.758-.316-1.021-.316h-.021a6.7 6.7 0 0 0-1.174-1.106z"/>
    <path fill="#fff" d="M18.32 5.762c-.084.21-.19.453-.29.669a3.5 3.5 0 0 1-.263.452l-.052-.058-.011-.01a.5.5 0 0 0-.363-.184.35.35 0 0 0-.242.094c-.053.048-.085.106-.106.132v.005l-.01.016a3 3 0 0 1-.19-.221l-.037-.042a2 2 0 0 0-.237-.263c-.084-.074-.205-.158-.347-.158a.56.56 0 0 0-.421.194.8.8 0 0 0-.18.3c-.11.332-.289.827-.457 1.238q-.118.296-.263.579a.4.4 0 0 0-.106-.09.4.4 0 0 0-.237-.037.33.33 0 0 0-.21.127c-.042.047-.074.105-.106.163a5 5 0 0 0-.131.29l-.047.105q-.073.18-.18.342a.4.4 0 0 1-.068.079l-.02.01c-.027 0-.043-.005-.138-.131-.079-.105-.216-.29-.484-.29a.57.57 0 0 0-.448.227.9.9 0 0 0-.173.326l-.448 1.127-.39-.137-.073.179a4 4 0 0 1-.332.658 1.4 1.4 0 0 1-.2.253c-.063.063-.095.068-.1.068-.09 0-.179-.047-.279-.158a2.3 2.3 0 0 1-.279-.447l-.058-.11a4 4 0 0 0-.221-.401c-.053-.074-.105-.147-.174-.205a.42.42 0 0 0-.273-.106c-.28 0-.448.21-.537.39-.053.11-.095.237-.116.347h-.316l-.685 1.495h-.31l-.858 2.58h.416l.72-2.174h.28l.684-1.495h.41l.017-.184a1.1 1.1 0 0 1 .105-.385c.063-.126.132-.168.19-.168 0 0 .01 0 .026.016a.5.5 0 0 1 .1.12q.101.167.184.343l.069.126c.094.18.205.38.342.532.137.158.32.29.563.29.153 0 .28-.09.369-.174.094-.09.184-.21.263-.332.11-.179.21-.384.29-.553l.394.132.595-1.49v-.016a.6.6 0 0 1 .105-.184c.042-.058.095-.084.148-.084.063 0 .095.026.174.131l.015.021c.069.09.2.264.432.264.19 0 .326-.137.405-.248.09-.12.158-.279.221-.416l.053-.12q.072-.162.158-.317c.01.016.047.063.09.095a.34.34 0 0 0 .22.074.26.26 0 0 0 .159-.063c.026-.027.052-.053.068-.08l.11-.184c.074-.147.159-.342.248-.552.168-.422.353-.927.463-1.264a.5.5 0 0 1 .09-.153q.071-.07.142-.068l.021.005.068.053q.086.08.195.216l.032.042c.053.074.12.153.179.21a.6.6 0 0 0 .126.111.35.35 0 0 0 .437-.026.5.5 0 0 0 .1-.137v-.005l.021-.032c.01 0 .021.01.08.068v.006c.068.068.178.19.378.19a.32.32 0 0 0 .21-.106.7.7 0 0 0 .127-.153 4 4 0 0 0 .237-.431l.263-.611a5 5 0 0 0-.326-.237"/>
</svg>
